X: 9371
T: Dancing Shoe, The
R: reel
M: 4/4
K: Amajor
A3B cBAE|~F3E ~A3E|~F3E ~A3B|cBeB cBAF|
A3B cBAE|~F3E ~A3E|FECF EBcB|AFFE ~F3E|
A3B cBAE|~F3E ~A3E|FEFG ~A3B|cBef ecBc|
A3B cBAE|~F3E ~A3E|FECF EBcB|AFFE FGAB|
~A2fc ecBc|AFFE FGAB|A2fc ecAB|cBeB cBAF|
~A2fe cBAE|~F3E ~A3E|FECF EBcB|AFFE FGAB|
Acfc ecBc|AFFE FGAB|Acfc ecAB|cBeB cBAF|
Affe cBAE|~F3E ~A3E|FECF EBcB|AFFE FGAB|

